packages/ffe-icons/icons/open/500/sm/nest_heat_link_e.svg

<svg xmlns="http://www.w3.org/2000/svg" height="20" viewBox="0 -960 960 960" width="20"><path d="M480.225-90.5q-80.421 0-151.377-30.359-70.957-30.358-124.294-83.695-53.337-53.337-83.695-124.303-30.36-70.965-30.36-151.652 0-80.687 30.36-151.143 30.358-70.457 83.695-123.794 53.337-53.337 124.303-83.695Q399.822-869.5 480.509-869.5q80.687 0 151.143 30.359 70.457 30.358 123.794 83.695 53.337 53.337 83.695 124.069Q869.5-560.646 869.5-480.225q0 80.421-30.359 151.377-30.358 70.957-83.695 124.294-53.337 53.337-124.069 83.695-70.731 30.36-151.152 30.36Zm.099-83q127.524 0 216.85-89.65T786.5-480.324q0-127.524-89.601-216.85T479.845-786.5q-127.454 0-216.899 89.601Q173.5-607.298 173.5-479.845q0 127.454 89.65 216.899Q352.8-173.5 480.324-173.5ZM480-334.087q-60.957 0-103.435-42.478T334.087-480q0-60.957 42.478-103.435T480-625.913q60.957 0 103.435 42.478T625.913-480q0 60.957-42.478 103.435T480-334.087Z"/></svg>

<svg xmlns="http://www.w3.org/2000/svg" height="20" viewBox="0 -960 960 960" width="20"><path d="M480.23-90.5q-80.43 0-151.38-30.36-70.96-30.36-124.3-83.69-53.33-53.34-83.69-124.31Q90.5-399.82 90.5-480.51q0-80.69 30.36-151.14 30.36-70.46 83.69-123.8 53.34-53.33 124.31-83.69 70.96-30.36 151.65-30.36 80.69 0 151.14 30.36 70.46 30.36 123.8 83.69 53.33 53.34 83.69 124.07 30.36 70.73 30.36 151.15 0 80.43-30.36 151.38-30.36 70.96-83.69 124.3-53.34 53.33-124.07 83.69Q560.65-90.5 480.23-90.5Zm.09-83q127.53 0 216.85-89.65 89.33-89.65 89.33-217.17 0-127.53-89.6-216.85-89.6-89.33-217.06-89.33-127.45 0-216.89 89.6-89.45 89.6-89.45 217.06 0 127.45 89.65 216.89 89.65 89.45 217.17 89.45ZM480-334.09q-60.96 0-103.43-42.48-42.48-42.47-42.48-103.43 0-60.96 42.48-103.43 42.47-42.48 103.43-42.48 60.96 0 103.43 42.48 42.48 42.47 42.48 103.43 0 60.96-42.48 103.43-42.47 42.48-103.43 42.48Z"/></svg>
